Icons/rename_me_ingress.svg

<svg viewBox="0 0 48 48"><defs><linearGradient id="linearGradient3764" x1="1" x2="47" gradientUnits="userSpaceOnUse" gradientTransform="translate(-48.000001,0.00221467)"><stop stop-color="#00a0dc" stop-opacity="1"/><stop offset="1" stop-color="#00adef" stop-opacity="1"/></linearGradient><clipPath id="clipPath-811945215"><g transform="translate(0,-1004.3622)"><rect rx="4" y="1005.36" x="1" height="46" width="46" fill="#1890d0"/></g></clipPath><clipPath id="clipPath-841365883"><g transform="translate(0,-1004.3622)"><rect rx="4" y="1005.36" x="1" height="46" width="46" fill="#1890d0"/></g></clipPath></defs><g><path d="m 1 43 l 0 0.25 c 0 2.216 1.784 4 4 4 l 38 0 c 2.216 0 4 -1.784 4 -4 l 0 -0.25 c 0 2.216 -1.784 4 -4 4 l -38 0 c -2.216 0 -4 -1.784 -4 -4 z m 0 0.5 l 0 0.5 c 0 2.216 1.784 4 4 4 l 38 0 c 2.216 0 4 -1.784 4 -4 l 0 -0.5 c 0 2.216 -1.784 4 -4 4 l -38 0 c -2.216 0 -4 -1.784 -4 -4 z" opacity="0.02"/><path d="m 1 43.25 l 0 0.25 c 0 2.216 1.784 4 4 4 l 38 0 c 2.216 0 4 -1.784 4 -4 l 0 -0.25 c 0 2.216 -1.784 4 -4 4 l -38 0 c -2.216 0 -4 -1.784 -4 -4 z" opacity="0.05"/><path d="m 1 43 l 0 0.25 c 0 2.216 1.784 4 4 4 l 38 0 c 2.216 0 4 -1.784 4 -4 l 0 -0.25 c 0 2.216 -1.784 4 -4 4 l -38 0 c -2.216 0 -4 -1.784 -4 -4 z" opacity="0.1"/></g><g><rect width="46" height="46" x="-47" y="1" rx="4" transform="matrix(0,-1,1,0,0,0)" fill="url(#linearGradient3764)" fill-opacity="1"/></g><g><g clip-path="url(#clipPath-811945215)"><g opacity="0.1"><!-- color: #00adef --><g><path d="m 34 18 l -20 0 l 10 17 m 1 -5 l 0 -5.5 l 5 -3 m -1 -1.5 l -5 3 l -5 -3 m -1 1.5 l 5 3 l 0 5.5 m -5 -8.5" fill="#000"/><path d="m 24 8.5 l -14 7.5 l 0 16 l 14 7.5 l 14 -7.5 l 0 -16 m -6.5 11 l -1 1.5 l 4.75 2.75 l -11.25 6.25 l -11.25 -6.25 l 4.75 -2.75 l -1 -1.5 l -4.5 3 l 0 -13 l 11 -6 l 0 5 l 2 0 l 0 -5 l 11 6 l 0 13 m -4.5 -3" fill="#000"/></g></g></g></g><g><g clip-path="url(#clipPath-841365883)"><g transform="translate(0,-1)"><!-- color: #00adef --><g><path d="m 34 18 l -20 0 l 10 17 m 1 -5 l 0 -5.5 l 5 -3 m -1 -1.5 l -5 3 l -5 -3 m -1 1.5 l 5 3 l 0 5.5 m -5 -8.5" fill="#f9f9f9"/><path d="m 24 8.5 l -14 7.5 l 0 16 l 14 7.5 l 14 -7.5 l 0 -16 m -6.5 11 l -1 1.5 l 4.75 2.75 l -11.25 6.25 l -11.25 -6.25 l 4.75 -2.75 l -1 -1.5 l -4.5 3 l 0 -13 l 11 -6 l 0 5 l 2 0 l 0 -5 l 11 6 l 0 13 m -4.5 -3" fill="#f9f9f9"/></g></g></g></g><g><g transform="translate(0,-1004.3622)"><path d="m 1 1043.36 0 4 c 0 2.216 1.784 4 4 4 l 38 0 c 2.216 0 4 -1.784 4 -4 l 0 -4 c 0 2.216 -1.784 4 -4 4 l -38 0 c -2.216 0 -4 -1.784 -4 -4 z" opacity="0.1"/></g></g></svg>

<svg viewBox="0 0 48 48" xmlns:xlink="http://www.w3.org/1999/xlink">
 <defs>
  <linearGradient id="0">
   <stop stop-opacity="0"/>
   <stop offset="1"/>
  </linearGradient>
  <linearGradient xlink:href="#0" id="1" gradientUnits="userSpaceOnUse" gradientTransform="translate(4e-7,-48)" y1="47" x2="0" y2="1"/>
  <clipPath id="2">
   <g transform="translate(0,-1004.3622)">
    <rect rx="4" y="1005.36" x="1" height="46" width="46" fill="#1890d0"/>
   </g>
  </clipPath>
  <clipPath id="3">
   <g transform="translate(0,-1004.3622)">
    <rect rx="4" y="1005.36" x="1" height="46" width="46" fill="#1890d0"/>
   </g>
  </clipPath>
 </defs>
 <g>
  <g transform="translate(0,-1004.3622)">
   <path d="m 5,1006.3622 c -2.216,0 -4,1.784 -4,4 l 0,37.25 c 0,2.216 1.784,4 4,4 l 38,0 c 2.216,0 4,-1.784 4,-4 l 0,-37.25 c 0,-2.216 -1.784,-4 -4,-4 l -38,0 z m -4,41.5 0,0.5 c 0,2.216 1.784,4 4,4 l 38,0 c 2.216,0 4,-1.784 4,-4 l 0,-0.5 c 0,2.216 -1.784,4 -4,4 l -38,0 c -2.216,0 -4,-1.784 -4,-4 z" opacity="0.02"/>
   <path d="m 1,1047.6122 0,0.25 c 0,2.216 1.784,4 4,4 l 38,0 c 2.216,0 4,-1.784 4,-4 l 0,-0.25 c 0,2.216 -1.784,4 -4,4 l -38,0 c -2.216,0 -4,-1.784 -4,-4 z" opacity="0.05"/>
   <rect width="46" height="46" x="1" y="1005.61" rx="4" opacity="0.1"/>
  </g>
 </g>
 <g>
  <g transform="translate(0,-1004.3622)">
   <rect rx="4" y="1005.36" x="1" height="46" width="46" fill="#00adef"/>
  </g>
 </g>
 <g>
  <rect transform="scale(1,-1)" width="46" height="46" x="1" y="-46.998" rx="4" opacity="0.1" fill="url(#1)"/>
 </g>
 <g>
  <g clip-path="url(#2)">
   <g opacity="0.1">
    <g>
     <path d="M 34 18 L 14 18 L 24 35 Z M 25 30 L 25 24.5 L 30 21.5 Z M 29 20 L 24 23 L 19 20 Z M 18 21.5 L 23 24.5 L 23 30 Z M 18 21.5 "/>
     <path d="M 24 8.5 L 10 16 L 10 32 L 24 39.5 L 38 32 L 38 16 Z M 31.5 27 L 30.5 28.5 L 35.25 31.25 L 24 37.5 L 12.75 31.25 L 17.5 28.5 L 16.5 27 L 12 30 L 12 17 L 23 11 L 23 16 L 25 16 L 25 11 L 36 17 L 36 30 Z M 31.5 27 "/>
    </g>
   </g>
  </g>
 </g>
 <g>
  <g clip-path="url(#3)">
   <g transform="translate(0,-1)">
    <g>
     <path d="M 34 18 L 14 18 L 24 35 Z M 25 30 L 25 24.5 L 30 21.5 Z M 29 20 L 24 23 L 19 20 Z M 18 21.5 L 23 24.5 L 23 30 Z M 18 21.5 " fill="#f9f9f9"/>
     <path d="M 24 8.5 L 10 16 L 10 32 L 24 39.5 L 38 32 L 38 16 Z M 31.5 27 L 30.5 28.5 L 35.25 31.25 L 24 37.5 L 12.75 31.25 L 17.5 28.5 L 16.5 27 L 12 30 L 12 17 L 23 11 L 23 16 L 25 16 L 25 11 L 36 17 L 36 30 Z M 31.5 27 " fill="#f9f9f9"/>
    </g>
   </g>
  </g>
 </g>
 <g>
  <g transform="translate(0,-1004.3622)">
   <path d="m 1,1043.3622 0,4 c 0,2.216 1.784,4 4,4 l 38,0 c 2.216,0 4,-1.784 4,-4 l 0,-4 c 0,2.216 -1.784,4 -4,4 l -38,0 c -2.216,0 -4,-1.784 -4,-4 z" opacity="0.1"/>
  </g>
 </g>
</svg>
